!!!!SEGMENT: pl-wtm--r-279-m_moniuszko-stanislaw--exaudi-deus-orationem-meam.krn
!!!cenid: 18xx:3033
!!!COM: Moniuszko, Stanisław
!!!COM-rismID: pe30008351
!!!CDT: 1819/05/05-1872/06/04
!!!CNT: Polish
!!!OTL: Exaudi Deus orationem meam
!!!PDT:
!!!AGN: Secular
!!!SMS-siglum: PL-Wtm
!!!SMS-shelfmark: R 279/M
!!!SMS-shelfwork: W
!!!SMS-variant:
!!!SMS-altvar:
!!!NIFC-rismSourceID: 1001088459
!!!NIFC-islandoraID:
!!!URL-pdf-islandora:
!!!URL-scan:
!!!ONB-nifc:
!!!OMD: Andantino.
!!!AIN: 2 empty 1 tenor
!!!key:
**kern	**kern	**fba	**fing	**dynam	**kern	**text	**dynam	**kern	**text	**dynam
*part3	*part3	*part3	*part3	*part3	*part2	*part2	*part2	*part1	*part1	*part1
*staff4	*staff3	*	*	*	*staff2	*staff2	*	*staff1	*staff1	*
*Iempty	*Iorgan	*	*	*	*Iempty	*	*	*Itenor	*	*
*	*I"[organy]	*	*	*	*I"Baryton.	*	*	*I"Tenor.	*	*
*clefF4	*clefG2	*	*	*	*clefF4	*	*	*clefG2	*	*
*	*	*	*	*	*	*	*	*ITrd8c12	*	*
*k[b-e-]	*k[b-e-]	*	*	*	*k[b-e-]	*	*	*k[b-e-]	*	*
*G:	*G:	*	*	*	*G:	*	*	*G:	*	*
*M6/8	*M6/8	*	*	*	*M6/8	*	*	*M6/8	*	*
*all\right	*all\right	*	*	*	*all\right	*	*	*all\right	*	*
=1	=1	=1	=1	=1	=1	=1	=1	=1	=1	=1
!	!	!	!	!LO:DY:t=pp.:rj	!	!	!	!LO:TX:a:t=Duet.	!	!
2.r	(>[>4.b-\ [>4.dd	.	.	pp	2.r	.	.	2.r	.	.
.	4b-\] 4dd]	.	.	.	.	.	.	.	.	.
.	8g/ 8b-	.	.	.	.	.	.	.	.	.
=2	=2	=2	=2	=2	=2	=2	=2	=2	=2	=2
2.r	[4.b-\ [4.gg	.	.	.	2.r	.	.	2.r	.	.
.	4b-\] 4gg]	.	.	.	.	.	.	.	.	.
.	8b-\) 8dd	.	.	.	.	.	.	.	.	.
=3	=3	=3	=3	=3	=3	=3	=3	=3	=3	=3
2.r	(>4.b-\ 4.dd	.	.	.	2.r	.	.	2.r	.	.
.	4a/) 4cc	.	.	.	.	.	.	.	.	.
.	8g/ 8b-	.	.	.	.	.	.	.	.	.
=4	=4	=4	=4	=4	=4	=4	=4	=4	=4	=4
2.r	[<4.d/ 4.b-	.	.	.	2.r	.	.	4r	.	.
.	.	.	.	.	.	.	.	8r	.	.
.	4.d/] 4.a	.	.	.	.	.	.	4.d\	Ex	.
=5	=5	=5	=5	=5	=5	=5	=5	=5	=5	=5
!LO:TX:b:t=bez pedału.	!	!	!	!	!	!	!	!	!	!
[>2.GG/ [>2.D	(8B-/L	.	.	.	2.r	.	.	[4.d\	au-	.
.	8d/	.	.	.	.	.	.	.	.	.
.	8g/J	.	.	.	.	.	.	.	.	.
.	8d/L	.	.	.	.	.	.	4d\]	.	.
.	8B-/	.	.	.	.	.	.	.	.	.
.	8d/J	.	.	.	.	.	.	8B-\	-di	.
!!LO:LB:g=original
=6	=6	=6	=6	=6	=6	=6	=6	=6	=6	=6
2.GG/_> 2.D_>	8B-/L	.	.	.	2.r	.	.	[4.A/	De-	.
.	8d/	.	.	.	.	.	.	.	.	.
.	8g/J	.	.	.	.	.	.	.	.	.
.	8d/L	.	.	.	.	.	.	4A/]	.	.
.	8G/	.	.	.	.	.	.	.	.	.
.	8B-/J	.	.	.	.	.	.	8G/	-us	.
=7	=7	=7	=7	=7	=7	=7	=7	=7	=7	=7
2.GG/_> 2.D]	8d/L	.	.	.	2.r	.	.	4F#X/	o-	.
.	8c/	.	.	.	.	.	.	.	.	.
.	8B-/J	.	.	.	.	.	.	8G/	-ra-	.
.	8g/L	.	.	.	.	.	.	4A/	-tio-	.
.	8B-/	.	.	.	.	.	.	.	.	.
.	8d/J	.	.	.	.	.	.	8B-/	-nem	.
=8	=8	=8	=8	=8	=8	=8	=8	=8	=8	=8
*	*^	*	*	*	*	*	*	*	*	*
*	*	*2\right	*	*	*	*	*	*	*	*	*
2.GG/] 2.G	8r	[>2.e-\)	.	.	.	2.r	.	.	4.B-/	mo-	.
.	(<8B-/L	.	.	.	.	.	.	.	.	.	.
.	8e-/J	.	.	.	.	.	.	.	.	.	.
.	8b-/L	.	.	.	.	.	.	.	8E-/	-am	.
.	8e-/	.	.	.	.	.	.	.	8r	.	.
.	8B-/J)	.	.	.	.	.	.	.	8e-\	et	.
=9	=9	=9	=9	=9	=9	=9	=9	=9	=9	=9	=9
*2\right	*	*	*	*	*	*	*	*	*	*	*
[2.G\	8r	2.e-\]	.	.	.	2.r	.	.	[4.g\	cla-	.
.	(<8B-/L	.	.	.	.	.	.	.	.	.	.
.	8e-/J	.	.	.	.	.	.	.	.	.	.
.	8b-/L	.	.	.	.	.	.	.	8g\L]	.	.
.	8e-/	.	.	.	.	.	.	.	8f\J	.	.
.	8g/J)	.	.	.	.	.	.	.	8e-\	-mor	.
=10	=10	=10	=10	=10	=10	=10	=10	=10	=10	=10	=10
2.G\]	8r	2.en\	.	.	.	2.r	.	.	4.d\	me-	.
.	(<8g/L	.	.	.	.	.	.	.	.	.	.
.	8a/J	.	.	.	.	.	.	.	.	.	.
.	8b-/L	.	.	.	.	.	.	.	4c#X\	-us	.
.	8a/	.	.	.	.	.	.	.	.	.	.
.	8g/J)	.	.	.	.	.	.	.	8r	.	.
!!LO:LB:g=original
=11	=11	=11	=11	=11	=11	=11	=11	=11	=11	=11	=11
2.G\ 2.A	8f#X/L	2.f#\	.	.	.	2.r	.	.	(4d\	ad	.
.	8a/	.	.	.	.	.	.	.	.	.	.
.	8d/J	.	.	.	.	.	.	.	8cn\)	.	.
.	8e-/L	.	.	.	.	.	.	.	8c\L	te	.
.	8d/	.	.	.	.	.	.	.	8B-\	.	.
.	8c/J	.	.	.	.	.	.	.	8A\J	.	.
*	*v	*v	*	*	*	*	*	*	*	*	*
=12	=12	=12	=12	=12	=12	=12	=12	=12	=12	=12
4.G\	8B-/L	.	.	.	4r	.	.	[4c\	ve-	.
.	8d/	.	.	.	.	.	.	.	.	.
.	8g/J	.	.	.	8r	.	.	16c\]	.	.
.	.	.	.	.	.	.	.	16B-\	-ni-	.
4.GG/	8d/L	.	.	.	4r	.	.	4B-\	-at.	.
.	8B-/	.	.	.	.	.	.	.	.	.
.	8d/J	.	.	.	8B-\	Ex-	.	8r	.	.
=13	=13	=13	=13	=13	=13	=13	=13	=13	=13	=13
*	*^	*	*	*	*	*	*	*	*	*
!	!	!LO:TX:t=P:problem=mixed beam	!	!	!	!	!	!	!	!	!
2.AA-X/	2.f/	8f\L	.	.	.	4.B-\	-au-	.	2.r	.	.
.	.	8d\	.	.	.	.	.	.	.	.	.
.	.	8B-</J	.	.	.	.	.	.	.	.	.
!	!	!LO:TX:t=P:problem=mixed beam	!	!	!	!	!	!	!	!	!
.	.	8F</L	.	.	.	4B-\	.	.	.	.	.
.	.	8B-</	.	.	.	.	.	.	.	.	.
.	.	8d\J	.	.	.	8D\	-di	.	.	.	.
=14	=14	=14	=14	=14	=14	=14	=14	=14	=14	=14	=14
!	!	!LO:TX:t=P:problem=mixed beam	!	!	!	!	!	!	!	!	!
2.GG/	4.f/	8f\L	.	.	.	4.F\	De-	.	2.r	.	.
.	.	8G</	.	.	.	.	.	.	.	.	.
.	.	8B-</J	.	.	.	.	.	.	.	.	.
.	8e-/L	4e-\	.	.	.	8E-\	-us	.	.	.	.
.	8g/	.	.	.	.	8r	.	.	.	.	.
.	8b-/J	8d\	.	.	.	8B-\	ex-	.	.	.	.
=15	=15	=15	=15	=15	=15	=15	=15	=15	=15	=15	=15
*	*	*	*	*	*	*2\right	*	*	*	*	*
4.AAn/	8a/L	4.c#X\	.	.	.	2.A\	-au-	.	2.r	.	.
.	8en/	.	.	.	.	.	.	.	.	.	.
.	8g/J	.	.	.	.	.	.	.	.	.	.
4.DD/ [4.D	8f#X/L	4.cn\	.	.	.	.	.	.	.	.	.
.	8d/	.	.	.	.	.	.	.	.	.	.
.	8a/J	.	.	.	.	.	.	.	.	.	.
!!LO:LB:g=original
=16	=16	=16	=16	=16	=16	=16	=16	=16	=16	=16	=16
*^	*	*	*	*	*	*	*	*	*	*	*
2.D/]	2.GG\	(8g/L	2.B-\	.	.	.	4G\	-di	.	4r	.	.
.	.	8d/	.	.	.	.	.	.	.	.	.	.
.	.	8g/J	.	.	.	.	8r	.	.	8r	.	.
.	.	8b-/L	.	.	.	.	4r	.	.	4.d\	ex	.
.	.	8g/	.	.	.	.	.	.	.	.	.	.
.	.	8d/J	.	.	.	.	8r	.	.	.	.	.
*	*	*v	*v	*	*	*	*	*	*	*	*	*
=17	=17	=17	=17	=17	=17	=17	=17	=17	=17	=17	=17
2.G/	2.GG\	8B-/L	.	.	.	2.r	.	.	[4.e-\	au-	.
.	.	8d/	.	.	.	.	.	.	.	.	.
.	.	8g/J	.	.	.	.	.	.	.	.	.
.	.	8d/L	.	.	.	.	.	.	4e-\]	.	.
.	.	8B-/	.	.	.	.	.	.	.	.	.
.	.	8d/J	.	.	.	.	.	.	8d\	-di	.
*v	*v	*	*	*	*	*	*	*	*	*	*
=18	=18	=18	=18	=18	=18	=18	=18	=18	=18	=18
[2.GG/	8g/L	.	.	.	2.r	.	.	[4.c\	De-	.
.	8d/	.	.	.	.	.	.	.	.	.
.	8g/J	.	.	.	.	.	.	.	.	.
.	8d/L)	.	.	.	.	.	.	4c\]	.	.
.	(>8G/	.	.	.	.	.	.	.	.	.
.	8B-/J	.	.	.	.	.	.	8B-\	-us	.
=19	=19	=19	=19	=19	=19	=19	=19	=19	=19	=19
2.GG/_	8d/L	.	.	.	2.r	.	.	4A\	o-	.
.	8B-/	.	.	.	.	.	.	.	.	.
.	8d/J	.	.	.	.	.	.	8B-\	-ra-	.
.	8g/L	.	.	.	.	.	.	4c\	-tio-	.
.	8d/	.	.	.	.	.	.	.	.	.
.	8g/J	.	.	.	.	.	.	8d\	-nem	.
=20	=20	=20	=20	=20	=20	=20	=20	=20	=20	=20
*	*^	*	*	*	*	*	*	*	*	*
2.GG/]	8b-/L	4ryy	.	.	.	2.r	.	.	4.d\	me-	.
.	8g/	.	.	.	.	.	.	.	.	.	.
.	8b-/J	8ryy	.	.	.	.	.	.	.	.	.
.	[4.dd/)	8dd\L	.	.	.	.	.	.	8G/	-am	.
.	.	8b-\	.	.	.	.	.	.	8r	.	.
.	.	8g\J	.	.	.	.	.	.	8d\	et	.
=21	=21	=21	=21	=21	=21	=21	=21	=21	=21	=21	=21
2.GG^/	2.dd/]	(>8b-\L	.	.	.	2.r	.	.	[4.f\	cla-	.
.	.	8g\	.	.	.	.	.	.	.	.	.
.	.	8en\J	.	.	.	.	.	.	.	.	.
.	.	8d\L	.	.	.	.	.	.	8f\L]	.	.
.	.	8g\	.	.	.	.	.	.	8en\J	.	.
.	.	8b-\J)	.	.	.	.	.	.	8d\	-mor	.
!!LO:PB:g=original
=22	=22	=22	=22	=22	=22	=22	=22	=22	=22	=22	=22
2.GG/	2.b-/	(>8g\L	.	.	.	2.r	.	.	[4.d\	me-	.
.	.	8d\	.	.	.	.	.	.	.	.	.
.	.	8c\J	.	.	.	.	.	.	.	.	.
.	.	8B-\L	.	.	.	.	.	.	8d\]	.	.
.	.	8en\	.	.	.	.	.	.	8c#X\	-us	.
.	.	8d\J)	.	.	.	.	.	.	8d\	ad	.
=23	=23	=23	=23	=23	=23	=23	=23	=23	=23	=23	=23
*	*	*	*	*	*	*	*	*	*2\right	*	*
2.G\	8r	2.d-X\	.	.	.	2.r	.	.	[2.en\	te	.
.	(>(<8en/L	.	.	.	.	.	.	.	.	.	.
.	8g/J	.	.	.	.	.	.	.	.	.	.
.	8b-/L	.	.	.	.	.	.	.	.	.	.
.	8g/	.	.	.	.	.	.	.	.	.	.
.	8f/J)	.	.	.	.	.	.	.	.	.	.
=24	=24	=24	=24	=24	=24	=24	=24	=24	=24	=24	=24
2.C/	8en/L	[2.c\	.	.	.	4r	.	.	4.e\]	.	.
.	8g/	.	.	.	.	.	.	.	.	.	.
.	8a/J	.	.	.	.	8r	.	.	.	.	.
.	8b-/L	.	.	.	.	4r	.	.	4d\	ve-	.
.	8g/	.	.	.	.	.	.	.	.	.	.
.	8cc/J)	.	.	.	.	8c\	Ex-	.	8c\	-ni-	.
=25	=25	=25	=25	=25	=25	=25	=25	=25	=25	=25	=25
2.AA/ [2.F	(8cc/L	4.c\]	.	.	.	[4.c\	-au-	.	4c\	-at	.
.	8a/	.	.	.	.	.	.	.	.	.	.
.	8f/J	.	.	.	.	.	.	.	8r	.	.
.	8c/L	4.c\	.	.	.	4c\]	.	.	4r	.	.
.	8f/	.	.	.	.	.	.	.	.	.	.
.	8a/J)	.	.	.	.	8F\	-di	.	8r	.	.
=26	=26	=26	=26	=26	=26	=26	=26	=26	=26	=26	=26
*^	*	*	*	*	*	*	*	*	*	*	*
2.F/]	4.BB-\	4.a/	8c\L	.	.	.	4.A\	De-	.	2.r	.	.
.	.	.	8d\	.	.	.	.	.	.	.	.	.
.	.	.	8c\J	.	.	.	.	.	.	.	.	.
.	4.GG\	8g/L	4.B-\	.	.	.	8G\	-us	.	.	.	.
.	.	8d/	.	.	.	.	8r	.	.	.	.	.
.	.	8g/J	.	.	.	.	8B-\	ex-	.	.	.	.
*v	*v	*	*	*	*	*	*	*	*	*	*	*
!!LO:LB:g=original
=27	=27	=27	=27	=27	=27	=27	=27	=27	=27	=27	=27
2.C/	8f/L	4.A\	.	.	.	([4.A\	-au-	.	2.r	.	.
.	8a/	.	.	.	.	.	.	.	.	.	.
.	8c/J	.	.	.	.	.	.	.	.	.	.
.	8d/L	4.B-\	.	.	.	4A\]	.	.	.	.	.
.	8G/	.	.	.	.	.	.	.	.	.	.
.	8en/J	.	.	.	.	8G\)	[[di]]	.	.	.	.
=28	=28	=28	=28	=28	=28	=28	=28	=28	=28	=28	=28
2.F\	8f/L	4.A\	.	.	.	4F\	-di	.	4r	.	.
.	8c/	.	.	.	.	.	.	.	.	.	.
.	[<8f/J	.	.	.	.	8r	.	.	8r	.	.
.	8f/L]	4.A\	.	.	.	4r	.	.	4.c\	In-	.
.	8c/	.	.	.	.	.	.	.	.	.	.
.	8f/J	.	.	.	.	8r	.	.	.	.	.
=29	=29	=29	=29	=29	=29	=29	=29	=29	=29	=29	=29
[2.FF/ [2.C	(2.a/	8A\L	.	.	.	2.r	.	.	[4.f\	-ten-	.
.	.	8c\	.	.	.	.	.	.	.	.	.
.	.	8f\J	.	.	.	.	.	.	.	.	.
.	.	8c\L	.	.	.	.	.	.	4f\]	.	.
.	.	8f\	.	.	.	.	.	.	.	.	.
.	.	8c\J	.	.	.	.	.	.	8c\	-de	.
*	*v	*v	*	*	*	*	*	*	*	*	*
=30	=30	=30	=30	=30	=30	=30	=30	=30	=30	=30
2.FF/] 2.C]	8A/L	.	.	.	2.r	.	.	[4.B-/	vo-	.
.	8c/	.	.	.	.	.	.	.	.	.
.	8f/J	.	.	.	.	.	.	.	.	.
.	8c/L	.	.	.	.	.	.	4B-/]	.	.
.	8f/	.	.	.	.	.	.	.	.	.
.	8c/J	.	.	.	.	.	.	8A/	-ci	.
=31	=31	=31	=31	=31	=31	=31	=31	=31	=31	=31
*^	*	*	*	*	*	*	*	*	*	*
(4.C/	[2.FF\	8A/L	.	.	.	4r	.	.	4G#X/	o-	.
.	.	8c/	.	.	.	.	.	.	.	.	.
.	.	8f/J	.	.	.	8r	.	.	8A/	-ra-	.
4.E-X/	.	8c/L	.	.	.	4r	.	.	4B-\	-tio-	.
.	.	8f/	.	.	.	.	.	.	.	.	.
.	.	8a/J	.	.	.	8A\	In-	.	8c\	-nes	.
=32	=32	=32	=32	=32	=32	=32	=32	=32	=32	=32	=32
*	*	*^	*	*	*	*	*	*	*	*	*
2.D/)	4.FF\]	2.a/	8A\L	.	.	.	[4.A\	-ten-	.	[4.d\	me-	.
.	.	.	8c\	.	.	.	.	.	.	.	.	.
.	.	.	8d\J	.	.	.	.	.	.	.	.	.
.	4.FF#X\	.	8c\L	.	.	.	4A\]	.	.	8d\]	-a,	.
.	.	.	8d\	.	.	.	.	.	.	8r	.	.
.	.	.	8c\J)	.	.	.	8D\	-de	.	8d\	in-	.
*v	*v	*	*	*	*	*	*	*	*	*	*	*
!!LO:LB:g=original
=33	=33	=33	=33	=33	=33	=33	=33	=33	=33	=33	=33
[>2.GG/ [>2.D	(2.b-/	8B-\L	.	.	.	2.B-\	De-	.	[4.g\	-ten-	.
.	.	8d\	.	.	.	.	.	.	.	.	.
.	.	8g\J	.	.	.	.	.	.	.	.	.
.	.	8d\L	.	.	.	.	.	.	4g\]	.	.
.	.	8g\	.	.	.	.	.	.	.	.	.
.	.	8d\J	.	.	.	.	.	.	8d\	-de	.
*	*v	*v	*	*	*	*	*	*	*	*	*
=34	=34	=34	=34	=34	=34	=34	=34	=34	=34	=34
2.GG/] 2.D]	8B-/L	.	.	.	4G\	-us	.	[4.c\	vo-	.
.	8d/	.	.	.	.	.	.	.	.	.
.	8g/J	.	.	.	8r	.	.	.	.	.
.	8d/L	.	.	.	4r	.	.	4c\]	.	.
.	8g/	.	.	.	.	.	.	.	.	.
.	8d/J	.	.	.	8r	.	.	8B-\	-ci	.
=35	=35	=35	=35	=35	=35	=35	=35	=35	=35	=35
*^	*	*	*	*	*	*	*	*	*	*
(2.D/	[2.GG\	8B-/L	.	.	.	2.r	.	.	4A\	o-	.
.	.	8d/	.	.	.	.	.	.	.	.	.
.	.	8g/J	.	.	.	.	.	.	8B-\	-ra-	.
.	.	8d/L	.	.	.	.	.	.	4c\	-tio-	.
.	.	8g/	.	.	.	.	.	.	.	.	.
.	.	8b-/J	.	.	.	.	.	.	8d\	-nes	.
=36	=36	=36	=36	=36	=36	=36	=36	=36	=36	=36	=36
2.G/)	2.GG\]	8B-/L	.	.	.	2.r	.	.	4.f\	me-	.
.	.	8e-/	.	.	.	.	.	.	.	.	.
.	.	8b-/J	.	.	.	.	.	.	.	.	.
.	.	8g/L	.	.	.	.	.	.	8e-\	-a	.
.	.	8b-/	.	.	.	.	.	.	8r	.	.
.	.	8g/J)	.	.	.	.	.	.	8d\	et	.
*v	*v	*	*	*	*	*	*	*	*	*	*
=37	=37	=37	=37	=37	=37	=37	=37	=37	=37	=37
(>(>2.G\ 2.B-	8r	.	.	.	8r	.	.	4.d\	cla-	.
.	(8en/L	.	.	.	8r	.	.	.	.	.
.	8g/J	.	.	.	8G\	et	.	.	.	.
.	8b-/L	.	.	.	[4.B-^\	cla-	.	8c#X\L	-mor,	.
.	8e/	.	.	.	.	.	.	8d\J	.	.
.	8c#X/J)	.	.	.	.	.	.	8en\	et	.
=38	=38	=38	=38	=38	=38	=38	=38	=38	=38	=38
2.F\)) 2.A	8r	.	.	.	4B-\]	.	.	[4.f\	cla-	.
.	(8d/L	.	.	.	.	.	.	.	.	.
.	8a/J	.	.	.	8A\	-mor	.	.	.	.
.	8dd/L	.	.	.	4F\	me-	.	4f\]	.	.
.	8d/	.	.	.	.	.	.	.	.	.
.	8a/J)	.	.	.	8D\	-us,	.	8f\	-mor	.
!!LO:LB:g=original
=39	=39	=39	=39	=39	=39	=39	=39	=39	=39	=39
(>(>2.c\ 2.e-	8r	.	.	.	8r	.	.	[4.f#X\	me-	.
.	(8a\L	.	.	.	8r	.	.	.	.	.
!	!	!	!	!	!	!	!LO:DY:a	!	!	!
.	8cc\J	.	.	.	8c\	et	<	.	.	.
!	!LO:TX:t=P:problem=mixed beam	!	!	!	!	!	!	!	!	!
.	8ee-\L	.	.	.	([4.e-\	cla-	[	4f#\]	.	.
.	8f#X/	.	.	.	.	.	.	.	.	.
.	8a/J)	.	.	.	.	.	.	8f#\	-us,	.
=40	=40	=40	=40	=40	=40	=40	=40	=40	=40	=40
2.B-\)) 2.d	8r	.	.	.	4e-\]	.	.	[4.g\	cla-	.
.	(8g/L	.	.	.	.	.	.	.	.	.
.	8b-/J	.	.	.	8d\)	.	.	.	.	.
.	8dd/L	.	.	.	(4B-\	-mor	.	4g\]	.	.
.	8b-/	.	.	.	.	.	.	.	.	.
.	8g/J)	.	.	.	8G\)	.	.	8d\	-mor	.
=41	=41	=41	=41	=41	=41	=41	=41	=41	=41	=41
*	*^	*	*	*	*	*	*	*	*	*
!	!LO:TX:t=P:problem=mixed beam	!	!	!	!	!	!	!LO:DY:a:rj	!	!	!LO:DY:a:rj
2.BB-\ 2.B-	2.f/	(>8d\L	5 4	.	.	4.B-\	me-	p	4.B-\	me-	p
.	.	8B-</	.	.	.	.	.	.	.	.	.
.	.	8G</J	.	.	.	.	.	.	.	.	.
!	!LO:TX:t=P:problem=mixed beam	!	!	!	!	!	!	!	!	!	!
.	.	8B-</L	.	.	.	4B-\	-us	.	4B-\	-us	.
.	.	8d\	.	.	.	.	.	.	.	.	.
.	.	8f\J)	.	.	.	8B-\	ad	.	8B-\	ad	.
*	*v	*v	*	*	*	*	*	*	*	*	*
=42	=42	=42	=42	=42	=42	=42	=42	=42	=42	=42
*^	*	*	*	*	*	*	*	*	*	*
8r	2.EE-\ 2.E-	(>2.c#X/ 2.g	5 3	.	.	[4.G\	te	.	[4.G/	te	.
*	*	*	*	*below	*	*	*	*	*	*	*
(<8G/L	.	.	.	1	.	.	.	.	.	.	.
8A/J	.	.	.	1	.	.	.	.	.	.	.
8B-/L	.	.	.	2	.	4G\]	ve-	.	4G/]	ve-	.
8A/	.	.	.	1	.	.	.	.	.	.	.
8G/J)	.	.	.	1	.	8G\	-ni-	.	8G/	-ni-	.
*v	*v	*	*	*	*	*	*	*	*	*	*
=43	=43	=43	=43	=43	=43	=43	=43	=43	=43	=43
[2.DD/ [2.D	8d/L)	.	.	.	[2.D\	-at	.	[2.d\	-at.	.
.	(8g/ 8b-	.	.	.	.	.	.	.	.	.
.	8f#X/J 8a	.	.	.	.	.	.	.	.	.
.	8fn/L 8a-X	.	.	.	.	.	.	.	.	.
.	8en/ 8g	.	.	.	.	.	.	.	.	.
.	8e-X/J 8g-X	.	.	.	.	.	.	.	.	.
=44	=44	=44	=44	=44	=44	=44	=44	=44	=44	=44
2.DD/] 2.D]	8d/L 8f	.	.	.	4.D\_	.	.	4.d\_	.	.
.	8c#X/ 8en	.	.	.	.	.	.	.	.	.
.	8cn/J 8e-X	.	.	.	.	.	.	.	.	.
.	8Bn/L 8d	.	.	.	8D\]	.	.	8d\]	.	.
.	8A#X/ 8c#X 8en	.	.	.	8r	.	.	8r	.	.
.	8A#/J) 8c# 8f#X	.	.	.	8r	.	.	8r	.	.
!!LO:PB:g=original
=45||	=45||	=45||	=45||	=45||	=45||	=45||	=45||	=45||	=45||	=45||
*ok[bnenf#]	*ok[bnenf#]	*	*	*	*ok[bnenf#]	*	*	*ok[bnenf#]	*	*
*k[f#]	*k[f#]	*	*	*	*k[f#]	*	*	*k[f#]	*	*
*^	*^	*	*	*	*	*	*	*	*	*
*	*	*	*	*	*	*	*	*	*	*	*^	*
*	*ped	*	*	*	*	*	*	*	*	*	*	*	*
8r	2.GG\	(>[<4.B/ [>4.d 4.g [>4.b	4ryy	.	.	.	[<4.B\	.	.	[4.d\	Sal-	[[ten-	.
(<8D/L	.	.	.	.	.	.	.	.	.	.	.	.	.
8G/J)	.	.	8ryy	.	.	.	.	.	.	.	.	.	.
8r	.	4d/] 4b]	8B\]	.	.	.	4B\]	.	.	4d\]	.	.	.
(<8G/L	.	.	8r	.	.	.	.	.	.	.	.	.	.
8D/J)	.	8B/) 8g	8ryy	.	.	.	8G\	.	.	8B\	-vum	-de	.
=46	=46	=46	=46	=46	=46	=46	=46	=46	=46	=46	=46	=46	=46
8r	2.GG\	(4.d/ [4.b	4.d\	.	.	.	[<4.B\	.	.	[4.g\	Sal-	vo-	.
(<8D/L	.	.	.	.	.	.	.	.	.	.	.	.	.
8G/J)	.	.	.	.	.	.	.	.	.	.	.	.	.
8r	.	4b/]	4.B\	.	.	.	4B\]	.	.	4g\]	.	.	.
(<8G/L	.	.	.	.	.	.	.	.	.	.	.	.	.
8D/J)	.	8g/)	.	.	.	.	8B\	.	.	8d\	-vum	-ci	.
*	*	*v	*v	*	*	*	*	*	*	*	*	*	*
=47	=47	=47	=47	=47	=47	=47	=47	=47	=47	=47	=47	=47
8r	2.GG\	(4.d/ 4.b	.	.	.	4.B\	.	.	4.d\	me	o-	.
(<8G/L	.	.	.	.	.	.	.	.	.	.	.	.
8F#/J	.	.	.	.	.	.	.	.	.	.	.	.
8E/L	.	4c#X/ 4a#X	.	.	.	(4A#X\	.	.	(4c#X\	fac	-ra-	.
8G/	.	.	.	.	.	.	.	.	.	.	.	.
8D/J)	.	8d/ 8b	.	.	.	8B\)	.	.	8d\)	.	-ti-	.
=48	=48	=48	=48	=48	=48	=48	=48	=48	=48	=48	=48	=48
8r	2.C\	[4f#/ [4dd	.	.	.	[4d\	.	.	[4f#\	Do-	-o-	.
(<8G/L	.	.	.	.	.	.	.	.	.	.	.	.
8G#X/J	.	16f#/LL] 16dd]	.	.	.	16d\]	.	.	16f#\]	.	.	.
.	.	16e/JJ 16cc	.	.	.	16c\	.	.	16e\	-mi-	-nes	.
8A/L	.	4.e/) 4.cc	.	.	.	4c\	.	.	8e\	-ne	.	.
8E/	.	.	.	.	.	.	.	.	8r	.	.	.
8c/J)	.	.	.	.	.	8r	.	.	8r	.	in-	.
=49	=49	=49	=49	=49	=49	=49	=49	=49	=49	=49	=49	=49
8r	2.DD\	(4.e^/ 4.cc	.	.	.	(4.c\	.	.	(4.e\	pro-	-ten-	.
(<8D/L	.	.	.	.	.	.	.	.	.	.	.	.
8D#X/J	.	.	.	.	.	.	.	.	.	.	.	.
8E/L	.	4d/ 4b	.	.	.	4B\)	.	.	4d\)	.	.	.
8E#X/	.	.	.	.	.	.	.	.	.	.	.	.
8F#/J)	.	8c/) 8a	.	.	.	8A\	.	.	8c\	-pter	-de]]	.
*	*	*	*	*	*	*	*	*	*	*v	*v	*
!!LO:LB:g=original
=50	=50	=50	=50	=50	=50	=50	=50	=50	=50	=50	=50
(8G/L	2.GG\	(>4c/ 4a	.	.	.	4A\	.	.	(4c\	mag-	.
8D/	.	.	.	.	.	.	.	.	.	.	.
8G/J	.	8B/ 8g	.	.	.	8G\	.	.	8B\)	.	.
8F#/L	.	4d/ 4a	.	.	.	4F#\	.	.	4A\	-nam	.
8D/	.	.	.	.	.	.	.	.	.	.	.
8Fn/J	.	8g/) 8b	.	.	.	8Fn\	.	.	8B\	mi-	.
=51	=51	=51	=51	=51	=51	=51	=51	=51	=51	=51	=51
*	*	*^	*	*	*	*	*	*	*	*	*
8E/L	4.CC\	(4dd/	4.g\	.	.	.	4E\	.	.	4d\	-se-	.
8G/	.	.	.	.	.	.	.	.	.	.	.	.
8E-X/J	.	8cc/)	.	.	.	.	8E-X\	.	.	8c\	-ri-	.
8D/L	4.DD\	(8cc/L	4.f#\	.	.	.	8D\	.	.	8c\	-cor-	.
8G/	.	8b/	.	.	.	.	8G\	.	.	8B\	-di-	.
8A/J	.	8a/J)	.	.	.	.	8A\	.	.	8A/	-am	.
*	*	*v	*v	*	*	*	*	*	*	*	*	*
=52	=52	=52	=52	=52	=52	=52	=52	=52	=52	=52	=52
!LO:TX:t=P:problem=mixed beam	!	!	!	!	!	!	!	!	!	!	!
8B\L	2.GG\	2.g/	.	.	.	4.B\	.	.	4.d\	tu-	.
8D/	.	.	.	.	.	.	.	.	.	.	.
8G/J	.	.	.	.	.	.	.	.	.	.	.
8B/L	.	.	.	.	.	4G\	.	.	8B\	-am!	.
8d/	.	.	.	.	.	.	.	.	8r	.	.
*	*	*	*	*	*	*	*	*	*	*^	*
8G/J)	.	.	.	.	.	8r	.	.	8d\	Ex-	[[ad-	.
=53	=53	=53	=53	=53	=53	=53	=53	=53	=53	=53	=53	=53
!	!	!LO:TX:t=P:problem=4 nuty 5 ligatur	!	!	!	!	!	!	!	!	!	!
8r	2.GG\	[4.e/ [4.a [4.cc#X [4.ee	.	.	.	4r	.	.	[4.e\	-au-	-ju-	.
(<8D/L	.	.	.	.	.	.	.	.	.	.	.	.
8A/J	.	.	.	.	.	8r	.	.	.	.	.	.
8c#X/L	.	4e/] 4a] 4cc#] 4ee]	.	.	.	4.E\	ex-	.	4e\_	.	.	.
8A/	.	.	.	.	.	.	.	.	.	.	.	.
8E/J)	.	8e/ 8cc#	.	.	.	.	.	.	16e\]	.	.	.
.	.	.	.	.	.	.	.	.	16c#X\	-di	-va]]	.
*	*	*	*	*	*	*	*	*	*	*v	*v	*
=54	=54	=54	=54	=54	=54	=54	=54	=54	=54	=54	=54
*	*	*^	*	*	*	*	*	*	*	*	*
8r	2.GG\	2.dd/	2.fn\	.	.	.	[4.Fn\	-au-	.	[4.d\	me!	.
!LO:ACC:color=grey	!	!	!	!	!	!	!	!	!	!	!	!
(<8Fn/L	.	.	.	.	.	.	.	.	.	.	.	.
8A/J	.	.	.	.	.	.	.	.	.	.	.	.
8d/L	.	.	.	.	.	.	4F\_	.	.	8d\]	.	.
8A/	.	.	.	.	.	.	.	.	.	8r	.	.
*	*	*	*	*	*	*	*	*	*	*	*^	*
8F/J)	.	.	.	.	.	.	16F\]	.	.	8d\	ex	[[ad]]	.
.	.	.	.	.	.	.	16E\	-di	.	.	.	.	.
*	*	*	*	*	*	*	*	*	*	*	*v	*v	*
*	*	*v	*v	*	*	*	*	*	*	*	*	*
!!LO:LB:g=original
=55	=55	=55	=55	=55	=55	=55	=55	=55	=55	=55	=55
8r	2.GG\	(>(>(>[<4.fn/ 4.b 4.dd 4.ffn	.	.	.	4D\	me	.	[4.fn\	ju-	.
(<8G/L	.	.	.	.	.	.	.	.	.	.	.
8B/J	.	.	.	.	.	8r	.	.	.	.	.
8d/L	.	4.f/]))) 4.g	.	.	.	4.G\	ex-	.	8f\L]	.	.
8B/	.	.	.	.	.	.	.	.	8e\J	.	.
8G/J)	.	.	.	.	.	.	.	.	8d#X\	-va	.
=56	=56	=56	=56	=56	=56	=56	=56	=56	=56	=56	=56
*	*	*^	*	*	*	*	*	*	*	*	*
8r	2.GG\	2.cc/ 2.ee	4.e\	.	.	.	4.c\	-au-	.	[4.e\	me	.
(<8G/L	.	.	.	.	.	.	.	.	.	.	.	.
8c/J	.	.	.	.	.	.	.	.	.	.	.	.
8e/L	.	.	4.g\	.	.	.	8E\	-di	.	8e\]	.	.
8c/	.	.	.	.	.	.	8r	.	.	8r	.	.
8G/J)	.	.	.	.	.	.	8G\	tu	.	8e\	tu	.
=57	=57	=57	=57	=57	=57	=57	=57	=57	=57	=57	=57	=57
(<4.c/ 4.e	2.GG\	(4.ee/	8cc\L	.	.	.	(4.e\	Sa-	.	[2.g\	sa-	.
.	.	.	8g\	.	.	.	.	.	.	.	.	.
.	.	.	8cc\J	.	.	.	.	.	.	.	.	.
4B/ 4d	.	4dd/	8b\L	.	.	.	4d\)	.	.	.	.	.
.	.	.	8g\	.	.	.	.	.	.	.	.	.
8A/ 8c	.	8cc/	8a\J	.	.	.	8c\	-lu-	.	.	.	.
*	*	*v	*v	*	*	*	*	*	*	*	*	*
=58	=58	=58	=58	=58	=58	=58	=58	=58	=58	=58	=58
4d/	2.GG\	8b/L	.	.	.	(4.B\	-ta-	.	4g\]	.	.
.	.	8g/	.	.	.	.	.	.	.	.	.
8B/	.	8d/J	.	.	.	.	.	.	8d\	-lu-	.
4.G/)	.	8g/L	.	.	.	4.G\)	-ris	.	4B\	-ta-	.
.	.	8d/	.	.	.	.	.	.	.	.	.
.	.	8B/J	.	.	.	.	.	.	8G/	-ris	.
=59	=59	=59	=59	=59	=59	=59	=59	=59	=59	=59	=59
*	*	*^	*	*	*	*	*	*	*	*	*
2.D/	2.D\	4.g/	8r	.	.	.	(>[>4.d\	nos-	.	(<[<4.B/	nos-	.
.	.	.	8e\L	.	.	.	.	.	.	.	.	.
.	.	.	8c\J	.	.	.	.	.	.	.	.	.
.	.	4.f#/)	8A\L	.	.	.	4d\]	.	.	4B/]	.	.
.	.	.	8B\	.	.	.	.	.	.	.	.	.
.	.	.	8c\J	.	.	.	8c\)	.	.	8A/)	.	.
!!LO:LB:g=original
=60	=60	=60	=60	=60	=60	=60	=60	=60	=60	=60	=60	=60
4.D/	2.D\	(8B/L 8g	4ryy	.	.	.	4B\	-ter	.	4d\	-ter	.
.	.	8d/	.	.	.	.	.	.	.	.	.	.
.	.	8B/J	8ryy	.	.	.	8r	.	.	8r	.	.
(<8G/L	.	8d/L	4.d\	.	.	.	4r	.	.	4r	.	.
8D/	.	8g/	.	.	.	.	.	.	.	.	.	.
*	*	*	*	*	*	*	*	*	*	*	*^	*
*	*	*	*	*	*	*	*	*	*	*	*above	*	*
8BB/J)	.	8b/J)	.	.	.	.	8r	.	.	8d\	ex-	[[et	.
*	*	*v	*v	*	*	*	*	*	*	*	*	*	*
=61	=61	=61	=61	=61	=61	=61	=61	=61	=61	=61	=61	=61
8r	(4.D\	2.d/ 2.f# 2.a	.	.	.	4r	.	.	[4.f#X\	-au-	cla-	.
8D/L	.	.	.	.	.	.	.	.	.	.	.	.
8F#/J	.	.	.	.	.	8r	.	.	.	.	.	.
8A/L	4.C\	.	.	.	.	4.D\	ex-	.	8f#\L]	.	.	.
8F#/	.	.	.	.	.	.	.	.	8e\J	.	.	.
8D/J	.	.	.	.	.	.	.	.	8d\	-di	-mor	.
=62	=62	=62	=62	=62	=62	=62	=62	=62	=62	=62	=62	=62
*	*	*^	*	*	*	*	*	*	*	*	*	*
8r	4.BB\	4.g/	2.d\	.	.	.	[4B\	-au-	.	[4.d\	me	me-	.
8D/L	.	.	.	.	.	.	.	.	.	.	.	.	.
8G/J	.	.	.	.	.	.	16B\]	.	.	.	.	.	.
.	.	.	.	.	.	.	16A\	-di	.	.	.	.	.
8B/L	4.GG\	4dd/	.	.	.	.	4G\	me	.	4d\]	.	.	.
8G/	.	.	.	.	.	.	.	.	.	.	.	.	.
8D/J	.	8cc/	.	.	.	.	8B\	tu	.	8g\	ex-	-us	.
*	*	*v	*v	*	*	*	*	*	*	*	*	*	*
=63	=63	=63	=63	=63	=63	=63	=63	=63	=63	=63	=63	=63
!	!	!	!	!	!LO:DY:rj	!	!	!	!	!	!	!
8r	2.FFn\	[2.d/ 2.a-X [2.bn	.	.	f	4B\	sa-	.	[4.a-X\	-au-	cla-	.
8Fn/L	.	.	.	.	.	.	.	.	.	.	.	.
8A-X/J	.	.	.	.	.	8B\	-lu-	.	.	.	.	.
8d/L	.	.	.	.	.	4B\	-ta-	.	8a-\L]	.	.	.
8A-/	.	.	.	.	.	.	.	.	8g\J	.	.	.
8F/J	.	.	.	.	.	8d\	-ris	.	8fn\	-di!	-mor,	.
=64	=64	=64	=64	=64	=64	=64	=64	=64	=64	=64	=64	=64
*	*	*^	*	*	*	*	*	*	*	*	*	*
*	*	*	*^	*	*	*	*	*	*	*	*	*	*
8r	2.EE-X\)	(4.b/]	4.d\]	2g\	.	.	.	(4.d^\	no-	.	2.g\	Sa	-cla-]]	.
(<8E-X/L	.	.	.	.	.	.	.	.	.	.	.	.	.	.
8G/J)	.	.	.	.	.	.	.	.	.	.	.	.	.	.
8r	.	4.cc/)	4c\	.	.	.	.	8G\)	-ster.	.	.	.	.	.
(<8G/L	.	.	.	8ryy	.	.	.	8r	.	.	.	.	.	.
8c/J)	.	.	8e-X\	8ryy	.	.	.	8G\	Ex-	.	.	.	.	.
*	*	*	*	*	*	*	*	*	*	*	*	*v	*v	*
*	*	*	*v	*v	*	*	*	*	*	*	*	*	*
!!LO:PB:g=original
=65	=65	=65	=65	=65	=65	=65	=65	=65	=65	=65	=65	=65
4.c/ 4.e-X	2.CC\ 2.C	4.ee-X/	8cc\L	.	.	.	4.e-X^\	-au-	.	[2.g\	Sa-	.
.	.	.	8g\	.	.	.	.	.	.	.	.	.
.	.	.	8cc\J	.	.	.	.	.	.	.	.	.
4Bn/ 4d	.	4dd/	8bn\L	.	.	.	4d\	-di!	.	.	.	.
.	.	.	8g\	.	.	.	.	.	.	.	.	.
8A/ 8c	.	8cc/	8a\J	.	.	.	8c\	tu	.	.	.	.
*	*	*v	*v	*	*	*	*	*	*	*	*	*
=66	=66	=66	=66	=66	=66	=66	=66	=66	=66	=66	=66
8d/L	2.DD\ 2.D	8b/L	.	.	.	4Bn\	sa-	.	4g\]	.	.
8B/	.	8g/	.	.	>	.	.	.	.	.	.
8G/J	.	8e/J	.	.	.	8B\	-lu-	.	8d\	-lu-	.
8d>/L	.	8d/L	.	.	.	4G\	-ta-	.	4B\	-ta-	.
8B>/	.	8B/	.	.	]	.	.	.	.	.	.
8G/J	.	8g/J	.	.	.	8G\	-ris	.	8G/	-ris	.
=67	=67	=67	=67	=67	=67	=67	=67	=67	=67	=67	=67
*	*	*^	*	*	*	*	*	*	*	*	*
8E/L	2.DD\	2.a/	2.g\	.	.	p	([2.c\	nos-	.	([2.e\	nos-	.
8G/	.	.	.	.	.	.	.	.	.	.	.	.
8A/J	.	.	.	.	.	.	.	.	.	.	.	.
8c>\L	.	.	.	.	.	.	.	.	.	.	.	.
8e>\	.	.	.	.	.	.	.	.	.	.	.	.
8g>\J	.	.	.	.	.	.	.	.	.	.	.	.
*v	*v	*	*	*	*	*	*	*	*	*	*	*
*	*v	*v	*	*	*	*	*	*	*	*	*
=68	=68	=68	=68	=68	=68	=68	=68	=68	=68	=68
8f#>\L	[>4.a/	.	.	.	4c\]	.	.	4.e\]	.	.
8d>\	.	.	.	.	.	.	.	.	.	.
8c>\J	.	.	.	.	8A\	.	.	.	.	.
8A/L	4.d/ 4.a]	.	.	.	4.F#\)	.	.	4.d\)	.	.
8F#/	.	.	.	.	.	.	.	.	.	.
8D/J	.	.	.	.	.	.	.	.	.	.
=69	=69	=69	=69	=69	=69	=69	=69	=69	=69	=69
*^	*	*	*	*	*	*	*	*	*	*
8r	2.GG\	[>2.B/ [>2.d [>2.g [>2.b	.	.	.	4G\	-ter.	.	4G/	-ter.	.
8D/L	.	.	.	.	.	.	.	.	.	.	.
8G/J	.	.	.	.	.	8r	.	.	8r	.	.
8B/L	.	.	.	.	.	4r	.	.	4r	.	.
8G/	.	.	.	.	.	.	.	.	.	.	.
8D/J	.	.	.	.	.	8r	.	.	8r	.	.
!!LO:LB:g=original
=70	=70	=70	=70	=70	=70	=70	=70	=70	=70	=70	=70
!	!	!LO:TX:t=P:problem=3 łuki do pauzy	!	!	!	!	!	!	!	!	!
!	!	!LO:TX:t=P:problem=mixed slur	!	!	!	!	!	!	!	!	!
8r	2.GG\	2.B/_ 2.d] 2.g] 2.b]	.	.	.	2.ryy	.	.	2.ryy	.	.
8D/L	.	.	.	.	.	.	.	.	.	.	.
8G/J	.	.	.	.	.	.	.	.	.	.	.
8B/L	.	.	.	.	.	.	.	.	.	.	.
8G/	.	.	.	.	.	.	.	.	.	.	.
[8D/J	.	.	.	.	.	.	.	.	.	.	.
=71	=71	=71	=71	=71	=71	=71	=71	=71	=71	=71	=71
*	*	*^	*	*	*	*	*	*	*	*	*
2.D/_	[2.GG\	8re	2.B\]	.	.	.	2.ryy	.	.	2.ryy	.	.
.	.	(<8d/L	.	.	.	.	.	.	.	.	.	.
.	.	8b/J	.	.	.	.	.	.	.	.	.	.
.	.	8g/L	.	.	.	.	.	.	.	.	.	.
.	.	8d/	.	.	.	.	.	.	.	.	.	.
.	.	8B/J	.	.	.	.	.	.	.	.	.	.
*	*	*v	*v	*	*	*	*	*	*	*	*	*
=72	=72	=72	=72	=72	=72	=72	=72	=72	=72	=72	=72
4GG/ 4D]	4GG\]	4d/)	.	.	.	2.ryy	.	.	2.ryy	.	.
8r	8ryy	8r	.	.	.	.	.	.	.	.	.
4D/	4GG\	4B/ 4d	.	.	.	.	.	.	.	.	.
8r	8ryy	8r	.	.	.	.	.	.	.	.	.
=73	=73	=73	=73	=73	=73	=73	=73	=73	=73	=73	=73
!LO:TX:b:t=Rękopis Moniuszki\n29/ X 96 r/	!	!	!	!	!	!	!	!	!	!	!
2.D;/	2.GG\	2.B;/ 2.g	.	.	.	2.ryy	.	.	2.ryy	.	.
*v	*v	*	*	*	*	*	*	*	*	*	*
==	==	==	==	==	==	==	==	==	==	==
*-	*-	*-	*-	*-	*-	*-	*-	*-	*-	*-
!!!system-decoration: s1,s2{(s3,s4)}
!!!RDF**kern: < = below
!!!RDF**kern: > = above
!!!ENC: Marcin Jachim
!!!END: 2021-09-06
!!!ENC: Marta Chmielewska
!!!END: 2021-09-15
